symbols/web/looks_4/materialsymbolsoutlined/looks_4_fill1_40px.svg

<svg xmlns="http://www.w3.org/2000/svg" height="40" width="40"><path d="M22.083 28.417h2.792V11.583h-2.792v6.959h-4.166v-6.959h-2.792v9.75h6.958ZM7.792 35q-1.125 0-1.959-.833Q5 33.333 5 32.208V7.792q0-1.125.833-1.959Q6.667 5 7.792 5h24.416q1.125 0 1.959.833.833.834.833 1.959v24.416q0 1.125-.833 1.959-.834.833-1.959.833Z"/></svg>

<svg xmlns="http://www.w3.org/2000/svg" height="40" width="40"><path d="M22.083 28.417H24.875V11.583H22.083V18.542H17.917V11.583H15.125V21.333H22.083ZM7.792 35Q6.667 35 5.833 34.167Q5 33.333 5 32.208V7.792Q5 6.667 5.833 5.833Q6.667 5 7.792 5H32.208Q33.333 5 34.167 5.833Q35 6.667 35 7.792V32.208Q35 33.333 34.167 34.167Q33.333 35 32.208 35Z"/></svg>
